X: 25430
T: Marcha De Breixo
R: reel
M: 4/4
K: Ddorian
z2 z B|dddc|ee =fg|d>c B/A/B/c/|d4-|d3 B|
dddc|ee =fg|d>c B/A/B/c/|d>B G2|G3 B||
A2 A2-|A3 A/B/|d/c/ c/B/ B/A/F/G/|A2 A2|A3 B|
d/c/c/B/ B/A/F/G/|1 A/B/c/B/ d/c/A/B/|G2 G2-|G3 G/B/:|2 A/B/c/B/ d/c/A/B/|G2 G2-|G3 z||

